X:1
T: Brudmarsch efter Per Johan Carlsson i Askeryd
B: Olof Andersson 1932
S: Svenska Låtar 
R: Marsch
M: 4/4
L: 1/8
K: D 
[DA]2 |: d2 d>e f2 {/g}(f/e/f/g/) | a4 (f3 g/f/) | efge d2 fe |
dc (Bc/B/) A2 FA | d2 d>e f2 {/g}(f/e/f/g/) | a4 (f3 g/f/) | efge d2 cA |
|1 d2 d>d [Dd]2 [AD]2 :|2 d2 d>d [Dd]2 z2 |: d2 f>a a2 b>f | f4 g3 e |
d2 d>d d2 fe | d>c (Bc/B/) A2 F>A | d2 {/e}(d/c/d/e/) f2 {/g}(f/e/f/g/) |
a4 f3 (a | g)fge d2 c>A | d2 d>d d2 z2 :|]

